X: 36740
T: Sheffield Park
R: three-two
M: 3/2
K: Dmajor
M:5/4
A/G/|FF AG ED DD FD|EE EF GB BA- AG|FA dc Ad cB AD|FF AG ED D2- D||
AG|F2 F2 A2 G2 E2|D2 D2 D2 F2 D2|E2 E2 E2 F2 G2|B2 B2 A2- A2 G2|
F2 A2 d2 c2 A2|d2 c2 B2 A2 D2|F2 F2 A2 G2 E2|D2 D2 D2- D||

